X:1
T:[ID 6-69]
T:[ID 6-69]
T:Bezeichnung standardisiert: Polonaise Polonoise 12.
T:Urheber unbekannt Datum in der hier transkribierten schriftlichen Quelle: 1775
C:Urheber unbekannt
C:Datum in der hier transkribierten schriftlichen Quelle: 1775
L:1/8
M:3/4
K:A
V:1 treble 
V:1
 CC/B,/ CEAB | cc/d/ c2 A2 | dd/e/ d2 c2 | d/c/B/A/ G2 G2 :: cc/d/ cB/A/ BG | GB BA/G/ AC | %6
 Cc cB/A/ BG | GB BA/G/ AC | CC/B,/ CEAB | E/D/C/B,/ C2 C2 :| %10

